!!!!SEGMENT: Ver3025-Altro_non_e_el_mio_amor.krn
!!!id: Ver3025
!!!AGN: Madrigal
!!!SCT: Slim (1972)
!!!voices: 5
!!!COM: Philippe Verdelot
!!!OTL: Altro non e el mio amor'
**kern	**kern	**kern	**kern	**kern
*part5	*part4	*part3	*part2	*part1
*staff5	*staff4	*staff3	*staff2	*staff1
*I"Bassus	*I"Tenor II	*I"Tenor I	*I"Altus	*I"Superius
*I'B	*I'T. II	*I'T. I	*I'A	*I'S
*clefF4	*clefGv2	*clefGv2	*clefG2	*clefG2
*k[]	*k[]	*k[]	*k[]	*k[]
*C:	*C:	*C:	*C:	*C:
*M2/1	*M2/1	*M2/1	*M2/1	*M2/1
*met(C)	*met(C)	*met(C)	*met(C)	*met(C)
=1	=1	=1	=1	=1
1C	0r	1G	1c	0r
2F	.	2A	2c	.
2E	.	2G	2c	.
=2	=2	=2	=2	=2
2D	1r	2A	2d	1r
2D	.	2B	2d	.
1C	1G	1c	2e	1g
.	.	.	2c	.
=3	=3	=3	=3	=3
0r	2c	0r	2e	2g
.	2B	.	2d	2g
.	2A	.	2e	2a
.	2A	.	2f	2a
=4	=4	=4	=4	=4
0r	1G	0d	2g	1b
.	.	.	2g	.
.	1r	.	2f	1dd
.	.	.	[2a	.
=5	=5	=5	=5	=5
0r	0r	2e	4a]	2b
.	.	.	4g	.
.	.	2c	1g	2cc
.	.	1d	.	1a
.	.	.	2f#i	.
=6	=6	=6	=6	=6
1G	1g	1G	1b	2g
.	.	.	.	2.dd
2A	2e	1r	1a	.
.	.	.	.	4b
2F	2f	.	.	[2cc
=7	=7	=7	=7	=7
1G	1d	1r	[0g	4cc]
.	.	.	.	8bL
.	.	.	.	8aJ
.	.	.	.	2b
[1C	4c	2r	.	1cc
.	4B	.	.	.
.	4c	2G	.	.
.	4d	.	.	.
=8	=8	=8	=8	=8
1C]	0e	1.c	0g]	2r
.	.	.	.	2g
2r	.	.	.	[1cc
2C	.	2c	.	.
=9	=9	=9	=9	=9
1.F	2r	2A	2r	2cc]
.	2A	2A	2c	2cc
.	2A	[1d	[1f	2a
2F	2A	.	.	2a
=10	=10	=10	=10	=10
2D	2A	2d]	2f]	1.dd
2D	2A	2d	2f	.
2.G	2.B	1d	2d	.
.	.	.	2d	2dd
4G	4B	.	.	.
=11	=11	=11	=11	=11
2G	2B	1d	2.g	2dd
2G	2B	.	.	2dd
.	.	.	4g	.
1C	2.G	1c	2g	1ee
.	.	.	2g	.
.	4A	.	.	.
=12	=12	=12	=12	=12
1G	1B	1d	2g	1dd
.	.	.	2g	.
2r	2r	2r	2r	2r
2D	2A	2d	2f	2dd
=13	=13	=13	=13	=13
2G	2B	2d	2g	2dd
2F	2A	2d	2a	2dd
2E	2B	2d	2g	2ee
2E	2G	2c	2g	2ee
=14	=14	=14	=14	=14
1D	2A	2d	1f	4ff
.	.	.	.	4ee
.	2d	2a	.	4dd
.	.	.	.	4cc
1r	2e	2g	1g	2b
.	2c	2e	.	2cc
=15	=15	=15	=15	=15
1D	1d	4f	2f	2b
.	.	4e	.	.
.	.	4d	2f	2.a
.	.	4c	.	.
2E	1G	2B	1e	.
.	.	.	.	4g
2C	.	2c	.	[2g
=16	=16	=16	=16	=16
1D	2r	1A	1d	2g]
.	2d	.	.	2f#i
[1G	2d	[1G	2r	1g
.	2d	.	2d	.
=17	=17	=17	=17	=17
1G]	2B	0G]	2d	2r
.	2B	.	2d	2dd
2r	4G	.	2B	2dd
.	4A	.	.	.
2G	4B	.	2B	2dd
.	4c	.	.	.
=18	=18	=18	=18	=18
2G	2d	2r	2.G	2b
2G	2d	2g	.	2b
.	.	.	4A	.
2E	4e	2g	2B	2g
.	4d	.	.	.
2E	4e	2g	[2c	2g
.	4f	.	.	.
=19	=19	=19	=19	=19
1.C	0g	2e	4c]	4cc
.	.	.	4d	4b
.	.	2e	2.e	4cc
.	.	.	.	4dd
.	.	2.c	.	1ee
.	.	.	4f	.
2C	.	.	4g	.
.	.	4B	4e	.
=20	=20	=20	=20	=20
2D	2f	2A	2f	2dd
2E	2e	2G	2g	1cc
2F	1d	2A	2f	.
2G	.	2B	2d	2b
=21	=21	=21	=21	=21
2E	[0c	2G	2e	[0cc
1F	.	1A	2c	.
.	.	.	1f	.
4E	.	4G	.	.
4D	.	4F	.	.
=22	=22	=22	=22	=22
0C;	0c;]	0G;	0e;	0cc;]
=23	=23	=23	=23	=23
1C	1c	1g	1cc	1ee
2C	2c	2g	2cc	2ee
2C	2c	2g	2cc	2ee
=24	=24	=24	=24	=24
2G	2d	2g	2b	2dd
2G	2B	2g	2b	2dd
2A	[1c	2e	2.a	[1cc
4F	.	2f	.	.
4G	.	.	4a	.
=25	=25	=25	=25	=25
4A	1c]	2f	2a	1cc]
4B	.	.	.	.
1c	.	2e	2g	.
.	1G	1d	2.g	1dd
2B	.	.	.	.
.	.	.	4f	.
=26	=26	=26	=26	=26
2c	2.g	0c	4e	2.ee
.	.	.	4d	.
2.C	.	.	4e	.
.	4f	.	4f	4dd
.	1e	.	[1g	1cc
4D	.	.	.	.
4E	.	.	.	.
4F	.	.	.	.
=27	=27	=27	=27	=27
1G	1d	2r	1g]	0b
.	.	2d	.	.
1r	1g	2e	2r	.
.	.	2e	2g	.
=28	=28	=28	=28	=28
1D	2.f	2.d	2a	1r
.	.	.	2a	.
.	4e	4c	.	.
2G	2d	2B	2.g	1dd
2G	[2g	2d	.	.
.	.	.	4f	.
=29	=29	=29	=29	=29
1C	2g]	2.c	2e	2ee
.	2e	.	2.g	2ee
.	.	4B	.	.
1D	2f	1A	.	2.dd
.	.	.	8f#iL	.
.	.	.	8eJ	.
.	[2d	.	2f#i	.
.	.	.	.	4cc
=30	=30	=30	=30	=30
2.G	2d]	1G	1g	2b
.	2B	.	.	2dd
4G	.	.	.	.
2A	1c	1r	1e	2.cc
2A	.	.	.	.
.	.	.	.	4b
=31	=31	=31	=31	=31
1D	1d	0r	1f	1a
1E	2.B	.	[1e	[1g
.	4A	.	.	.
=32	=32	=32	=32	=32
1E	2B	1G	1e]	1g]
.	2.c	.	.	.
1F	.	1A	2r	1r
.	4B	.	.	.
.	4A	.	2c	.
.	4G	.	.	.
=33	=33	=33	=33	=33
1D	1F	1B	1d	1r
1C	1G	1c	1e	1g
=34	=34	=34	=34	=34
0r	1r	1F	1f	1a
.	2r	2G	1d	1b
.	[2G	2G	.	.
=35	=35	=35	=35	=35
1C	2G]	2c	1e	1cc
.	1A	2e	.	.
1D	.	1d	1f	1r
.	[2B	.	.	.
=36	=36	=36	=36	=36
1E	2B]	2G	1g	1g
.	1c	2g	.	.
2F	.	2f	1r	1a
2A	2c	2e	.	.
=37	=37	=37	=37	=37
2G	2d	2.g	2r	1b
2G	2d	.	2g	.
.	.	4f	.	.
2.c	2.e	4e	2g	2cc
.	.	4d	.	.
.	.	2c	2g	2ee
4B	4f	.	.	.
=38	=38	=38	=38	=38
2G	2g	2d	2g	2dd
2B	2d	2G	2g	2dd
1A	2.e	2r	1a	2cc
.	.	2c	.	2cc
.	4f	.	.	.
=39	=39	=39	=39	=39
1G	2g	4d	2d	4b
.	.	4c	.	4a
.	2G	4B	1g	4b
.	.	4A	.	4cc
2r	2.d	2G	.	2b
2D	.	2A	2f#i	[2a
.	4c	.	.	.
=40	=40	=40	=40	=40
2G	2d	2B	2.g	4a]
.	.	.	.	4g
2C	2e	2c	.	1g
.	.	.	4e	.
1D	1d	1A	4f	.
.	.	.	4e	.
.	.	.	4d	2f#i
.	.	.	4c	.
=41	=41	=41	=41	=41
1G	0d	0G	0B	[0g
1r	.	.	.	.
=42	=42	=42	=42	=42
0C	1r	1r	1r	0g]
.	[1e	[1c	[1g	.
=43	=43	=43	=43	=43
0G	1e]	1c]	1g]	0r
.	1d	1B	1g	.
=44	=44	=44	=44	=44
1C	1e	2c	1g	0ee
.	.	1G	.	.
2C	2c	.	2g	.
2C	2c	2c	2g	.
=45	=45	=45	=45	=45
1G	1B	1d	1g	1dd
2r	2r	2r	2r	1ee
2C	2e	2c	2g	.
=46	=46	=46	=46	=46
2F	2f	2A	2a	2cc
2F	2f	2A	2a	2cc
1G	1d	2B	1g	1b
.	.	2G	.	.
=47	=47	=47	=47	=47
1C	1c	2r	1e	2r
.	.	2G	.	2cc
2r	2r	2A	2r	2cc
2G	2d	2B	2g	2b
=48	=48	=48	=48	=48
2A	2c	2c	2e	1a
2F	2A	2.d	2f	.
2.G	1B	.	1d	[1g
.	.	4c	.	.
.	.	4B	.	.
4F	.	4A	.	.
=49	=49	=49	=49	=49
4E	0c	2G	[0e	0g_
4D	.	.	.	.
1C	.	2.g	.	.
.	.	4f	.	.
[2c	.	4e	.	.
.	.	4d	.	.
=50	=50	=50	=50	=50
2c]	1r	1c	1e]	1g]
4B	.	.	.	.
4A	.	.	.	.
1B	1d	2G	1r	1r
.	.	[2g	.	.
=51	=51	=51	=51	=51
2c	2e	2g]	2r	0r
2A	2c	2f#i	2a	.
2G	2d	1g	2b	.
2E	2e	.	2g	.
=52	=52	=52	=52	=52
2D	1f	2r	2a	1r
2D	.	2d	2b	.
1A	1e	2e	1cc	2r
.	.	2c	.	2a
=53	=53	=53	=53	=53
1G	1r	2d	1b	2b
.	.	2e	.	2g
2d	2r	2f	2a	2a
2B	2d	2d	[2g	2b
=54	=54	=54	=54	=54
1A	2e	2r	4g]	1cc
.	.	.	8f#iL	.
.	.	.	8eJ	.
.	2c	2A	2f#i	.
2G	2d	2B	1g	1b
2B	2e	2G	.	.
=55	=55	=55	=55	=55
2c	2f	2A	2r	2a
2B	2d	2B	2d	2.g
2A	2r	1c	2e	.
.	.	.	.	8f#iL
.	.	.	.	8eJ
2A	2A	.	2c	2f#i
=56	=56	=56	=56	=56
1G	2B	1B	2d	1g
.	2G	.	2e	.
1D	2A	1d	1f	2r
.	2B	.	.	2dd
=57	=57	=57	=57	=57
2.A	2.c	2c	1e	2ee
.	.	2.A	.	2cc
4G	4B	.	.	.
2F	2A	.	2d	2dd
.	.	4B	.	.
2E	2G	[2c	2c	2ee
=58	=58	=58	=58	=58
1D	1F	2c]	1d	1ff
.	.	2B	.	.
2C	2G	2c	2g	1ee
2C	2c	2e	2g	.
=59	=59	=59	=59	=59
2F	2A	2.f	2a	2dd
2F	2A	.	2a	2.cc
.	.	4e	.	.
1G	1B	1d	1g	.
.	.	.	.	8bL
.	.	.	.	8aJ
.	.	.	.	2b
=60	=60	=60	=60	=60
1C	2G	[0cl	1e	[0ccl
.	2g	.	.	.
2r	2e	.	2r	.
2C	2e	.	2g	.
=61	=61	=61	=61	=61
2F	2.f	0c_	2.a	0cc_
2F	.	.	.	.
.	4g	.	4g	.
1F	1a	.	1f	.
=62	=62	=62	=62	=62
00Cl	00gl	00c]	00el	00cc]
==	==	==	==	==
*-	*-	*-	*-	*-
!!!system-decoration: [*]
!!!RDF**kern: i = editorial accidental
!!!RDF**kern: l = terminal long
!!!ENC: Benjamin Ory
!!!END: 2021/4/7
!!!EED: Benjamin Ory
!!!EEV: 2021/04/29
!!!YEC: Copyright 2021 Benjamin Ory, All Rights Reserved
!!!ONB: Translated from MusicXML on 2021/04/29
